Hatter-kde/actions/16/view-form-action.svg

<?xml version="1.0" encoding="UTF-8"?>
<svg viewBox="0 0 16 16" xmlns="http://www.w3.org/2000/svg">
 <defs id="defs3051">
  <style id="current-color-scheme" type="text/css">.ColorScheme-Text {
        color:#363636;
      }</style>
 </defs>
 <path class="ColorScheme-Text" d="m2 2v3 9h1 5 1v-1h-1-5v-8h10v2h1v-5h-11-1zm6.6875 0.5 1.6562 1.0938 1.6562-1.0938 0.6875 0.4375-2 1.3125-0.34375 0.25-0.34375-0.25-2-1.3125 0.6875-0.4375zm-4.6875 3.5v2 2 2h2 1v-1-1-2-1-1h-1-2zm4 1v1h1v-1h-1zm4 0-3 4.082 2-0.082031v3l3-4h-2v-3z" fill="currentColor"/>
</svg>

<svg xmlns="http://www.w3.org/2000/svg" viewBox="0 0 16 16">
  <defs id="defs3051">
    <style type="text/css" id="current-color-scheme">
      .ColorScheme-Text {
        color:#363636;
      }
      </style>
  </defs>
 <path style="fill:currentColor;fill-opacity:1;stroke:none" 
       d="M 2 2 L 2 5 L 2 14 L 3 14 L 8 14 L 9 14 L 9 13 L 8 13 L 3 13 L 3 5 L 13 5 L 13 7 L 14 7 L 14 2 L 3 2 L 2 2 z M 8.6875 2.5 L 10.34375 3.59375 L 12 2.5 L 12.6875 2.9375 L 10.6875 4.25 L 10.34375 4.5 L 10 4.25 L 8 2.9375 L 8.6875 2.5 z M 4 6 L 4 8 L 4 10 L 4 12 L 6 12 L 7 12 L 7 11 L 7 10 L 7 8 L 7 7 L 7 6 L 6 6 L 4 6 z M 8 7 L 8 8 L 9 8 L 9 7 L 8 7 z M 12 7 L 9 11.082031 L 11 11 L 11 14 L 14 10 L 12 10 L 12 7 z "
     class="ColorScheme-Text"
     />
</svg>
